flaticon/outdoor/knife.svg

<svg xmlns="http://www.w3.org/2000/svg" width="32" height="32" viewBox="0 0 24 24">
    <path d="M 5.132812 5.636719 C 4.972656 5.476562 4.71875 5.476562 4.558594 5.636719 C 4.398438 5.796875 4.398438 6.054688 4.558594 6.210938 L 6.570312 8.226562 C 6.648438 8.304688 6.753906 8.34375 6.859375 8.34375 C 6.960938 8.34375 7.066406 8.304688 7.144531 8.226562 C 7.304688 8.066406 7.304688 7.808594 7.144531 7.648438 Z M 5.132812 5.636719"/>
    <path d="M 23.242188 19.210938 L 21.828125 17.796875 C 21.613281 17.582031 21.265625 17.582031 21.046875 17.796875 L 20.898438 17.949219 L 16.058594 13.113281 L 16.597656 12.574219 C 16.761719 12.410156 16.851562 12.191406 16.851562 11.960938 C 16.851562 11.730469 16.761719 11.515625 16.597656 11.351562 L 15.808594 10.5625 C 15.46875 10.222656 14.921875 10.222656 14.585938 10.5625 L 14.046875 11.101562 L 6.527344 3.582031 C 5.925781 2.980469 5.175781 2.554688 4.351562 2.347656 C 3.667969 2.179688 3.046875 1.828125 2.550781 1.332031 L 1.410156 0.191406 L 1.203125 0 L 0.699219 0.199219 L 0.613281 1.3125 C 0.46875 3.234375 1.164062 5.117188 2.527344 6.480469 L 10.597656 14.550781 L 10.054688 15.089844 C 9.894531 15.253906 9.804688 15.46875 9.804688 15.699219 C 9.804688 15.929688 9.894531 16.148438 10.054688 16.3125 L 10.847656 17.101562 C 11.015625 17.269531 11.238281 17.355469 11.457031 17.355469 C 11.679688 17.355469 11.902344 17.269531 12.070312 17.101562 L 12.609375 16.5625 L 17.445312 21.402344 L 17.203125 21.644531 C 16.988281 21.859375 16.988281 22.207031 17.203125 22.425781 L 18.617188 23.839844 C 18.726562 23.945312 18.867188 24 19.007812 24 C 19.148438 24 19.289062 23.945312 19.398438 23.839844 L 23.242188 19.992188 C 23.457031 19.777344 23.457031 19.429688 23.242188 19.210938 Z M 17.5625 15.765625 L 18.136719 16.339844 L 15.835938 18.640625 L 15.261719 18.066406 Z M 14.6875 17.492188 L 14.113281 16.914062 L 16.410156 14.617188 L 16.988281 15.191406 Z M 18.710938 16.917969 L 19.285156 17.492188 L 16.988281 19.792969 L 16.410156 19.214844 Z M 3.101562 5.90625 C 1.90625 4.710938 1.296875 3.058594 1.425781 1.375 L 1.425781 1.355469 L 1.976562 1.90625 C 2.578125 2.507812 3.328125 2.933594 4.152344 3.140625 C 4.835938 3.308594 5.457031 3.660156 5.953125 4.15625 L 13.46875 11.675781 L 11.171875 13.976562 Z M 11.492188 16.527344 C 11.472656 16.546875 11.441406 16.546875 11.421875 16.527344 L 10.628906 15.734375 C 10.613281 15.71875 10.613281 15.683594 10.628906 15.664062 L 11.171875 15.125 L 15.160156 11.136719 C 15.167969 11.125 15.183594 11.121094 15.195312 11.121094 C 15.207031 11.121094 15.222656 11.125 15.230469 11.136719 L 16.023438 11.925781 C 16.039062 11.945312 16.039062 11.980469 16.023438 11.996094 Z M 14.332031 14.835938 L 15.484375 13.6875 L 15.835938 14.042969 L 13.535156 16.339844 L 13.183594 15.988281 Z M 17.5625 20.367188 L 19.863281 18.066406 L 20.320312 18.523438 L 18.019531 20.824219 Z M 19.007812 23.078125 L 17.960938 22.035156 L 21.4375 18.558594 L 22.484375 19.605469 Z M 19.007812 23.078125"/>
</svg>

<svg xmlns="http://www.w3.org/2000/svg" width="32" height="32" viewBox="0 0 24 24">
    <path d="M5.133 5.637a.403.403 0 0 0-.574 0 .403.403 0 0 0 0 .574L6.57 8.227a.408.408 0 0 0 .575-.579zm0 0"/>
    <path d="M23.242 19.21l-1.414-1.413a.554.554 0 0 0-.781 0l-.149.152-4.84-4.836.54-.539a.863.863 0 0 0 0-1.222l-.79-.79a.86.86 0 0 0-1.222 0l-.54.54-7.519-7.52a4.69 4.69 0 0 0-2.175-1.234A3.841 3.841 0 0 1 2.55 1.332L1.41.192 1.202 0 .7.2.613 1.312A6.598 6.598 0 0 0 2.527 6.48l8.07 8.07-.542.54a.876.876 0 0 0 0 1.223l.793.789a.865.865 0 0 0 1.222 0l.54-.54 4.835 4.84-.242.243a.554.554 0 0 0 0 .78l1.414 1.415c.11.105.25.16.39.16.141 0 .282-.055.391-.16l3.844-3.848a.554.554 0 0 0 0-.781zm-5.68-3.444l.575.574-2.301 2.3-.574-.574zm-2.875 1.726l-.574-.578 2.297-2.297.578.574zm4.024-.574l.574.574-2.297 2.301-.578-.578zM3.1 5.906a5.777 5.777 0 0 1-1.675-4.531v-.02l.55.551a4.69 4.69 0 0 0 2.176 1.235c.684.168 1.305.52 1.801 1.015l7.516 7.52-2.297 2.3zm8.391 10.621a.05.05 0 0 1-.07 0l-.793-.793c-.016-.015-.016-.05 0-.07l.543-.539 3.988-3.988c.008-.012.024-.016.035-.016.012 0 .028.004.035.016l.793.789c.016.02.016.054 0 .07zm2.84-1.691l1.152-1.149.352.356-2.3 2.297-.352-.352zm3.23 5.531l2.301-2.3.457.456-2.3 2.301zm1.446 2.711l-1.047-1.043 3.477-3.476 1.046 1.046zm0 0"/>
</svg>
